img/calendar.svg

<svg fill="none" height="22" viewBox="0 0 22 22" width="22" xmlns="http://www.w3.org/2000/svg"><path d="m5.04688 18.9507c-.94629 0-1.67123-.2518-2.17481-.7554-.50358-.498-.75537-1.2174-.75537-2.1582v-10.04394c0-.94075.25179-1.66015.75537-2.1582.50358-.50358 1.22852-.75537 2.17481-.75537h11.57132c.9463 0 1.6684.25179 2.1665.75537.5035.49805.7553 1.21745.7553 2.1582v10.04394c0 .9408-.2518 1.6602-.7553 2.1582-.4981.5036-1.2202.7554-2.1665.7554zm.15771-2.1416h11.24751c.3099 0 .5451-.0775.7056-.2324.1605-.155.2407-.3957.2407-.7222v-7.3877c0-.32097-.0802-.55892-.2407-.71387s-.3957-.23242-.7056-.23242h-11.24751c-.3099 0-.54508.07747-.70557.23242-.16048.15495-.24072.3929-.24072.71387v7.3877c0 .3265.08024.5672.24072.7222.16049.1549.39567.2324.70557.2324zm4.07568-6.5908c-.15494 0-.26285-.0305-.32373-.0913-.06087-.0609-.09131-.16606-.09131-.31548v-.48974c0-.14942.03044-.25179.09131-.30713.06088-.06087.16879-.09131.32373-.09131h.48145c.15495 0 .26288.03044.32368.09131.0609.05534.0914.15771.0914.30713v.48974c0 .14942-.0305.25458-.0914.31548-.0608.0608-.16873.0913-.32368.0913zm2.63133 0c-.1494 0-.2545-.0305-.3154-.0913-.0609-.0609-.0913-.16606-.0913-.31548v-.48974c0-.14942.0304-.25179.0913-.30713.0609-.06087.166-.09131.3154-.09131h.4898c.1549 0 .2628.03044.3237.09131.0609.05534.0913.15771.0913.30713v.48974c0 .14942-.0304.25458-.0913.31548-.0609.0608-.1688.0913-.3237.0913zm2.6397 0c-.1494 0-.2546-.0305-.3155-.0913-.0608-.0609-.0913-.16606-.0913-.31548v-.48974c0-.14942.0305-.25179.0913-.30713.0609-.06087.1661-.09131.3155-.09131h.4897c.155 0 .2629.03044.3237.09131.0609.05534.0914.15771.0914.30713v.48974c0 .14942-.0305.25458-.0914.31548-.0608.0608-.1687.0913-.3237.0913zm-7.91068 2.5898c-.15494 0-.26285-.0277-.32373-.083-.06087-.0609-.0913-.166-.0913-.3154v-.4898c0-.1494.03043-.2518.0913-.3071.06088-.0609.16879-.0913.32373-.0913h.48975c.14942 0 .25456.0304.31543.0913.06087.0553.09131.1577.09131.3071v.4898c0 .1494-.03044.2545-.09131.3154-.06087.0553-.16601.083-.31543.083zm2.63965 0c-.15494 0-.26285-.0277-.32373-.083-.06087-.0609-.09131-.166-.09131-.3154v-.4898c0-.1494.03044-.2518.09131-.3071.06088-.0609.16879-.0913.32373-.0913h.48145c.15495 0 .26288.0304.32368.0913.0609.0553.0914.1577.0914.3071v.4898c0 .1494-.0305.2545-.0914.3154-.0608.0553-.16873.083-.32368.083zm2.63133 0c-.1494 0-.2545-.0277-.3154-.083-.0609-.0609-.0913-.166-.0913-.3154v-.4898c0-.1494.0304-.2518.0913-.3071.0609-.0609.166-.0913.3154-.0913h.4898c.1549 0 .2628.0304.3237.0913.0609.0553.0913.1577.0913.3071v.4898c0 .1494-.0304.2545-.0913.3154-.0609.0553-.1688.083-.3237.083zm2.6397 0c-.1494 0-.2546-.0277-.3155-.083-.0608-.0609-.0913-.166-.0913-.3154v-.4898c0-.1494.0305-.2518.0913-.3071.0609-.0609.1661-.0913.3155-.0913h.4897c.155 0 .2629.0304.3237.0913.0609.0553.0914.1577.0914.3071v.4898c0 .1494-.0305.2545-.0914.3154-.0608.0553-.1687.083-.3237.083zm-7.91068 2.5981c-.15494 0-.26285-.0276-.32373-.083-.06087-.0608-.0913-.1687-.0913-.3237v-.4814c0-.155.03043-.2601.0913-.3155.06088-.0553.16879-.083.32373-.083h.48975c.14942 0 .25456.0277.31543.083.06087.0554.09131.1605.09131.3155v.4814c0 .155-.03044.2629-.09131.3237-.06087.0554-.16601.083-.31543.083zm2.63965 0c-.15494 0-.26285-.0276-.32373-.083-.06087-.0608-.09131-.1687-.09131-.3237v-.4814c0-.155.03044-.2601.09131-.3155.06088-.0553.16879-.083.32373-.083h.48145c.15495 0 .26288.0277.32368.083.0609.0554.0914.1605.0914.3155v.4814c0 .155-.0305.2629-.0914.3237-.0608.0554-.16873.083-.32368.083zm2.63133 0c-.1494 0-.2545-.0276-.3154-.083-.0609-.0608-.0913-.1687-.0913-.3237v-.4814c0-.155.0304-.2601.0913-.3155.0609-.0553.166-.083.3154-.083h.4898c.1549 0 .2628.0277.3237.083.0609.0554.0913.1605.0913.3155v.4814c0 .155-.0304.2629-.0913.3237-.0609.0554-.1688.083-.3237.083z" fill="#2c2e2c"/></svg>

<svg width="22" height="22" viewBox="0 0 22 22" fill="none" xmlns="http://www.w3.org/2000/svg">
<path d="M5.04688 18.9507C4.10059 18.9507 3.37565 18.6989 2.87207 18.1953C2.36849 17.6973 2.1167 16.9779 2.1167 16.0371L2.1167 5.99316C2.1167 5.05241 2.36849 4.33301 2.87207 3.83496C3.37565 3.33138 4.10059 3.07959 5.04688 3.07959L16.6182 3.07959C17.5645 3.07959 18.2866 3.33138 18.7847 3.83496C19.2882 4.33301 19.54 5.05241 19.54 5.99316V16.0371C19.54 16.9779 19.2882 17.6973 18.7847 18.1953C18.2866 18.6989 17.5645 18.9507 16.6182 18.9507H5.04688ZM5.20459 16.8091H16.4521C16.762 16.8091 16.9972 16.7316 17.1577 16.5767C17.3182 16.4217 17.3984 16.181 17.3984 15.8545V8.4668C17.3984 8.14583 17.3182 7.90788 17.1577 7.75293C16.9972 7.59798 16.762 7.52051 16.4521 7.52051L5.20459 7.52051C4.89469 7.52051 4.65951 7.59798 4.49902 7.75293C4.33854 7.90788 4.2583 8.14583 4.2583 8.4668V15.8545C4.2583 16.181 4.33854 16.4217 4.49902 16.5767C4.65951 16.7316 4.89469 16.8091 5.20459 16.8091ZM9.28027 10.2183C9.12533 10.2183 9.01742 10.1878 8.95654 10.127C8.89567 10.0661 8.86523 9.96094 8.86523 9.81152V9.32178C8.86523 9.17236 8.89567 9.06999 8.95654 9.01465C9.01742 8.95378 9.12533 8.92334 9.28027 8.92334H9.76172C9.91667 8.92334 10.0246 8.95378 10.0854 9.01465C10.1463 9.06999 10.1768 9.17236 10.1768 9.32178V9.81152C10.1768 9.96094 10.1463 10.0661 10.0854 10.127C10.0246 10.1878 9.91667 10.2183 9.76172 10.2183H9.28027ZM11.9116 10.2183C11.7622 10.2183 11.6571 10.1878 11.5962 10.127C11.5353 10.0661 11.5049 9.96094 11.5049 9.81152V9.32178C11.5049 9.17236 11.5353 9.06999 11.5962 9.01465C11.6571 8.95378 11.7622 8.92334 11.9116 8.92334H12.4014C12.5563 8.92334 12.6642 8.95378 12.7251 9.01465C12.786 9.06999 12.8164 9.17236 12.8164 9.32178V9.81152C12.8164 9.96094 12.786 10.0661 12.7251 10.127C12.6642 10.1878 12.5563 10.2183 12.4014 10.2183H11.9116ZM14.5513 10.2183C14.4019 10.2183 14.2967 10.1878 14.2358 10.127C14.175 10.0661 14.1445 9.96094 14.1445 9.81152V9.32178C14.1445 9.17236 14.175 9.06999 14.2358 9.01465C14.2967 8.95378 14.4019 8.92334 14.5513 8.92334H15.041C15.196 8.92334 15.3039 8.95378 15.3647 9.01465C15.4256 9.06999 15.4561 9.17236 15.4561 9.32178V9.81152C15.4561 9.96094 15.4256 10.0661 15.3647 10.127C15.3039 10.1878 15.196 10.2183 15.041 10.2183H14.5513ZM6.64062 12.8081C6.48568 12.8081 6.37777 12.7804 6.31689 12.7251C6.25602 12.6642 6.22559 12.5591 6.22559 12.4097V11.9199C6.22559 11.7705 6.25602 11.6681 6.31689 11.6128C6.37777 11.5519 6.48568 11.5215 6.64062 11.5215H7.13037C7.27979 11.5215 7.38493 11.5519 7.4458 11.6128C7.50667 11.6681 7.53711 11.7705 7.53711 11.9199V12.4097C7.53711 12.5591 7.50667 12.6642 7.4458 12.7251C7.38493 12.7804 7.27979 12.8081 7.13037 12.8081H6.64062ZM9.28027 12.8081C9.12533 12.8081 9.01742 12.7804 8.95654 12.7251C8.89567 12.6642 8.86523 12.5591 8.86523 12.4097V11.9199C8.86523 11.7705 8.89567 11.6681 8.95654 11.6128C9.01742 11.5519 9.12533 11.5215 9.28027 11.5215H9.76172C9.91667 11.5215 10.0246 11.5519 10.0854 11.6128C10.1463 11.6681 10.1768 11.7705 10.1768 11.9199V12.4097C10.1768 12.5591 10.1463 12.6642 10.0854 12.7251C10.0246 12.7804 9.91667 12.8081 9.76172 12.8081H9.28027ZM11.9116 12.8081C11.7622 12.8081 11.6571 12.7804 11.5962 12.7251C11.5353 12.6642 11.5049 12.5591 11.5049 12.4097V11.9199C11.5049 11.7705 11.5353 11.6681 11.5962 11.6128C11.6571 11.5519 11.7622 11.5215 11.9116 11.5215H12.4014C12.5563 11.5215 12.6642 11.5519 12.7251 11.6128C12.786 11.6681 12.8164 11.7705 12.8164 11.9199V12.4097C12.8164 12.5591 12.786 12.6642 12.7251 12.7251C12.6642 12.7804 12.5563 12.8081 12.4014 12.8081H11.9116ZM14.5513 12.8081C14.4019 12.8081 14.2967 12.7804 14.2358 12.7251C14.175 12.6642 14.1445 12.5591 14.1445 12.4097V11.9199C14.1445 11.7705 14.175 11.6681 14.2358 11.6128C14.2967 11.5519 14.4019 11.5215 14.5513 11.5215H15.041C15.196 11.5215 15.3039 11.5519 15.3647 11.6128C15.4256 11.6681 15.4561 11.7705 15.4561 11.9199V12.4097C15.4561 12.5591 15.4256 12.6642 15.3647 12.7251C15.3039 12.7804 15.196 12.8081 15.041 12.8081H14.5513ZM6.64062 15.4062C6.48568 15.4062 6.37777 15.3786 6.31689 15.3232C6.25602 15.2624 6.22559 15.1545 6.22559 14.9995V14.5181C6.22559 14.3631 6.25602 14.258 6.31689 14.2026C6.37777 14.1473 6.48568 14.1196 6.64062 14.1196H7.13037C7.27979 14.1196 7.38493 14.1473 7.4458 14.2026C7.50667 14.258 7.53711 14.3631 7.53711 14.5181V14.9995C7.53711 15.1545 7.50667 15.2624 7.4458 15.3232C7.38493 15.3786 7.27979 15.4062 7.13037 15.4062H6.64062ZM9.28027 15.4062C9.12533 15.4062 9.01742 15.3786 8.95654 15.3232C8.89567 15.2624 8.86523 15.1545 8.86523 14.9995V14.5181C8.86523 14.3631 8.89567 14.258 8.95654 14.2026C9.01742 14.1473 9.12533 14.1196 9.28027 14.1196H9.76172C9.91667 14.1196 10.0246 14.1473 10.0854 14.2026C10.1463 14.258 10.1768 14.3631 10.1768 14.5181V14.9995C10.1768 15.1545 10.1463 15.2624 10.0854 15.3232C10.0246 15.3786 9.91667 15.4062 9.76172 15.4062H9.28027ZM11.9116 15.4062C11.7622 15.4062 11.6571 15.3786 11.5962 15.3232C11.5353 15.2624 11.5049 15.1545 11.5049 14.9995V14.5181C11.5049 14.3631 11.5353 14.258 11.5962 14.2026C11.6571 14.1473 11.7622 14.1196 11.9116 14.1196H12.4014C12.5563 14.1196 12.6642 14.1473 12.7251 14.2026C12.786 14.258 12.8164 14.3631 12.8164 14.5181V14.9995C12.8164 15.1545 12.786 15.2624 12.7251 15.3232C12.6642 15.3786 12.5563 15.4062 12.4014 15.4062H11.9116Z" fill="#2C2E2C"/>
</svg>
